packages/foundations/assets/icons/functional/images/buildings/house.svg

<svg xmlns="http://www.w3.org/2000/svg" width="32" height="32" fill="none"><path fill="#1A1C1F" fill-rule="evenodd" d="M15.173 3.616c-.4.119-.825.349-1.112.602-.424.373-10.888 11.892-10.983 12.09-.198.415.012 1.02.429 1.231.604.306.81.226 1.733-.679l.733-.719.001 5.73c0 3.776.019 5.797.055 5.927a.91.91 0 0 0 .573.612c.233.09.483.097 3.451.097 3.143 0 3.204-.002 3.414-.112.132-.069.273-.209.373-.369l.16-.258.015-3.137.016-3.138h3.993l.015 3.191.014 3.191.134.196c.073.109.241.251.373.316.239.119.258.12 3.253.136 1.658.01 3.138.002 3.291-.016a.95.95 0 0 0 .763-.509L26 27.76l.027-5.801.026-5.801.693.694c.809.811.998.914 1.476.799.643-.154.956-.853.65-1.451-.041-.08-2.51-2.804-5.488-6.053-3.755-4.098-5.509-5.975-5.727-6.128-.505-.355-.838-.458-1.55-.479-.475-.015-.686.003-.934.076m1.349 2.041c.123.071 1.574 1.687 3.838 4.275L24 14.093v12.414h-4v-6.311l-.133-.226a.82.82 0 0 0-.366-.339c-.231-.112-.265-.113-3.587-.099l-3.354.015-.171.128c-.373.28-.361.161-.377 3.672l-.014 3.16H8V14.095l3.676-4.181c2.792-3.175 3.732-4.21 3.907-4.304.278-.15.631-.132.939.047"/></svg>

<svg width="32" height="32" viewBox="0 0 32 32" fill="none" xmlns="http://www.w3.org/2000/svg"><path d="M15.173 3.616 C 14.773 3.735,14.348 3.965,14.061 4.218 C 13.637 4.591,3.173 16.110,3.078 16.308 C 2.880 16.723,3.090 17.328,3.507 17.539 C 4.111 17.845,4.317 17.765,5.240 16.860 L 5.973 16.141 5.974 21.871 C 5.974 25.647,5.993 27.668,6.029 27.798 C 6.107 28.081,6.310 28.297,6.602 28.410 C 6.835 28.500,7.085 28.507,10.053 28.507 C 13.196 28.507,13.257 28.505,13.467 28.395 C 13.599 28.326,13.740 28.186,13.840 28.026 L 14.000 27.768 14.015 24.631 L 14.031 21.493 16.027 21.493 L 18.024 21.493 18.039 24.684 L 18.053 27.875 18.187 28.071 C 18.260 28.180,18.428 28.322,18.560 28.387 C 18.799 28.506,18.818 28.507,21.813 28.523 C 23.471 28.533,24.951 28.525,25.104 28.507 C 25.453 28.464,25.696 28.302,25.867 27.998 L 26.000 27.760 26.027 21.959 L 26.053 16.158 26.746 16.852 C 27.555 17.663,27.744 17.766,28.222 17.651 C 28.865 17.497,29.178 16.798,28.872 16.200 C 28.831 16.120,26.362 13.396,23.384 10.147 C 19.629 6.049,17.875 4.172,17.657 4.019 C 17.152 3.664,16.819 3.561,16.107 3.540 C 15.632 3.525,15.421 3.543,15.173 3.616 M16.522 5.657 C 16.645 5.728,18.096 7.344,20.360 9.932 L 24.000 14.093 24.000 20.300 L 24.000 26.507 22.000 26.507 L 20.000 26.507 20.000 23.351 L 20.000 20.196 19.867 19.970 C 19.779 19.818,19.658 19.706,19.501 19.631 C 19.270 19.519,19.236 19.518,15.914 19.532 L 12.560 19.547 12.389 19.675 C 12.016 19.955,12.028 19.836,12.012 23.347 L 11.998 26.507 9.999 26.507 L 8.000 26.507 8.000 20.301 L 8.000 14.095 11.676 9.914 C 14.468 6.739,15.408 5.704,15.583 5.610 C 15.861 5.460,16.214 5.478,16.522 5.657 " fill="#1A1C1F" stroke="none" fill-rule="evenodd"></path></svg>
